betcity/landings/newyear_100000/dist/img/favicon.svg

<svg width="180" height="180" viewBox="0 0 180 180" fill="none" xmlns="http://www.w3.org/2000/svg">
<rect width="180" height="180" rx="40" fill="#0092F3"/>
<path d="M106.33 77.5345H82.6772L84.4966 66.0292H140.445L144.083 42.5583H61.7536L56.2952 77.5345H38.1008L34.9167 98.7042H52.6563L46.7431 136.442H101.781C127.254 136.442 144.538 124.936 143.629 102.386C143.174 86.7387 129.983 77.5345 106.33 77.5345ZM104.056 113.431H76.764L79.0383 98.7042H106.785C112.243 98.7042 114.972 100.545 115.427 104.227C115.882 110.21 111.333 113.431 104.056 113.431Z" fill="white"/>
</svg>

<svg width="180" height="180" fill="none" xmlns="http://www.w3.org/2000/svg"><rect width="180" height="180" rx="40" fill="#0092F3"/><path d="M106.33 77.534H82.677l1.82-11.505h55.948l3.638-23.47h-82.33l-5.458 34.975H38.101l-3.184 21.17h17.74l-5.914 37.738h55.038c25.473 0 42.757-11.506 41.848-34.056-.455-15.647-13.646-24.852-37.299-24.852Zm-2.274 35.897H76.764l2.274-14.727h27.747c5.458 0 8.187 1.841 8.642 5.523.455 5.983-4.094 9.204-11.371 9.204Z" fill="#fff"/></svg>
